docs/img/icons/phone-call.svg

<svg width="23" height="23" viewBox="0 0 23 23" fill="none" xmlns="http://www.w3.org/2000/svg">
<g clip-path="url(#clip0_7:21)">
<path d="M14.399 3.83333C15.3351 4.01596 16.1953 4.47375 16.8697 5.1481C17.544 5.82246 18.0018 6.68271 18.1844 7.61875M14.399 0C16.3438 0.216043 18.1572 1.08692 19.5417 2.46963C20.9261 3.85235 21.7993 5.66472 22.0178 7.60917M21.0594 15.2567V18.1317C21.0605 18.3986 21.0059 18.6627 20.8989 18.9073C20.792 19.1518 20.6352 19.3714 20.4385 19.5518C20.2418 19.7322 20.0097 19.8696 19.7568 19.9551C19.504 20.0406 19.2361 20.0724 18.9703 20.0483C16.0213 19.7279 13.1887 18.7202 10.6999 17.1063C8.38436 15.6349 6.42123 13.6717 4.94986 11.3563C3.33026 8.85615 2.32234 6.0097 2.00778 3.0475C1.98383 2.78249 2.01533 2.5154 2.10026 2.26322C2.18519 2.01105 2.3217 1.77933 2.5011 1.5828C2.68049 1.38628 2.89884 1.22926 3.14224 1.12175C3.38565 1.01424 3.64877 0.958584 3.91486 0.958333H6.78986C7.25495 0.953756 7.70583 1.11845 8.05847 1.42172C8.4111 1.72499 8.64144 2.14614 8.70653 2.60667C8.82788 3.52673 9.05292 4.43011 9.37736 5.29958C9.5063 5.64259 9.5342 6.01538 9.45777 6.37376C9.38134 6.73214 9.20377 7.06111 8.94611 7.32167L7.72903 8.53875C9.09327 10.938 11.0798 12.9245 13.479 14.2888L14.6961 13.0717C14.9567 12.814 15.2856 12.6364 15.644 12.56C16.0024 12.4836 16.3752 12.5115 16.7182 12.6404C17.5877 12.9649 18.491 13.1899 19.4111 13.3113C19.8766 13.3769 20.3018 13.6114 20.6057 13.9701C20.9096 14.3288 21.0711 14.7867 21.0594 15.2567Z" stroke="white" stroke-width="2" stroke-linecap="round" stroke-linejoin="round"/>
</g>
<defs>
<clipPath id="clip0_7:21">
<rect width="23" height="23" fill="white"/>
</clipPath>
</defs>
</svg>

<svg width="23" height="23" fill="none" xmlns="http://www.w3.org/2000/svg"><g clip-path="url(#clip0_7:21)"><path d="M14.399 3.833a4.792 4.792 0 013.785 3.786M14.4 0a8.625 8.625 0 017.619 7.61m-.959 7.647v2.875a1.915 1.915 0 01-2.089 1.916 18.966 18.966 0 01-8.27-2.942 18.689 18.689 0 01-5.75-5.75 18.966 18.966 0 01-2.942-8.309A1.917 1.917 0 013.915.958H6.79a1.917 1.917 0 011.917 1.649c.12.92.346 1.823.67 2.693a1.917 1.917 0 01-.43 2.022L7.728 8.539a15.334 15.334 0 005.75 5.75l1.217-1.217a1.916 1.916 0 012.022-.432c.87.325 1.773.55 2.693.671a1.916 1.916 0 011.648 1.946z" stroke="#fff" stroke-width="2" stroke-linecap="round" stroke-linejoin="round"/></g><defs><clipPath id="clip0_7:21"><path fill="#fff" d="M0 0h23v23H0z"/></clipPath></defs></svg>
